X:791
T:Xiraldilla (CT 151)
R:Xiraldilla
C:Tradicional
S:Msica Tradicional Asturiana, (C) Tello & Tito. Asturies, 2001.
S:http://pagina.de/MusTradAst <telloytito@asturies.org>
N:Xiraldilla, dictada por Estanislao Lana Lana, de veintin aos, de Somiedu.
A:Asturies
O:Somiedu
Z:Cancioneru de Torner 151
M:3/8
L:1/8
Q:3/8=88
K:G
|: G>AB|cBA|G>AB|ccc|B3|A2 z|
A>AA|BAG|F>GA|BAG|F3|G2 z :|
A>AA|BAG|F>GA|BAG|F3|G2 z||
W:Maanita de San Juan,
W:cunto me diverta
W:a las orillas del mar
W:con una prenda ma.
W:A las orillas del mar
W:con una prenda ma,
W:maanita de San Juan,
W:cunto me diverta,
W:a las orillas del mar
W:con una prenda ma.
W:
